X: 1
T: Lady's Well, The
M: 3/4
L: 1/8
R: waltz
K: Dmaj
|:D4E2|F(A A4)|f4e2|e(d d4)|B4G2|d4B2|A4F2|F(E E4)|
D4E2|F(A A4)|f4e2|e(d d4)|A4d2|f4A2|e4A2|1d6:|2d4A2|]
|:f4e2|d4A2|B(d d4)|A(F F4)|D4E2|F(A A4)|1f4e2|e(d d4):|2d3e dc|d3|]
